src/icons/duplicate.svg

<svg height="24" viewBox="0 0 24 24" width="24" xmlns="http://www.w3.org/2000/svg"><path d="m16 19c.552 0 1 .447 1 1s-.448 1-1 1h-10c-1.654 0-3-1.346-3-3v-9c0-.553.448-1 1-1s1 .447 1 1v9c0 .552.449 1 1 1zm2-16c1.654 0 3 1.346 3 3v8c0 1.654-1.346 3-3 3h-8c-1.654 0-3-1.346-3-3v-8c0-1.654 1.346-3 3-3zm1 11v-8c0-.552-.449-1-1-1h-8c-.551 0-1 .448-1 1v8c0 .552.449 1 1 1h8c.551 0 1-.448 1-1zm-2-5c.552 0 1 .447 1 1s-.448 1-1 1h-2v2c0 .553-.448 1-1 1s-1-.447-1-1v-2h-2c-.552 0-1-.447-1-1s.448-1 1-1h2v-2c0-.553.448-1 1-1s1 .447 1 1v2z" fill="#c1cbd4" fill-rule="evenodd"/></svg>

<svg width="24" height="24" viewBox="0 0 24 24" xmlns="http://www.w3.org/2000/svg">
  <path d="M16,19 C16.552,19 17,19.447 17,20 C17,20.553 16.552,21 16,21 L6,21 C4.346,21 3,19.654 3,18 L3,9 C3,8.447 3.448,8 4,8 C4.552,8 5,8.447 5,9 L5,18 C5,18.552 5.449,19 6,19 L16,19 Z M18,3 C19.654,3 21,4.346 21,6 L21,14 C21,15.654 19.654,17 18,17 L10,17 C8.346,17 7,15.654 7,14 L7,6 C7,4.346 8.346,3 10,3 L18,3 Z M19,14 L19,6 C19,5.448 18.551,5 18,5 L10,5 C9.449,5 9,5.448 9,6 L9,14 C9,14.552 9.449,15 10,15 L18,15 C18.551,15 19,14.552 19,14 Z M17,9 C17.552,9 18,9.447 18,10 C18,10.553 17.552,11 17,11 L15,11 L15,13 C15,13.553 14.552,14 14,14 C13.448,14 13,13.553 13,13 L13,11 L11,11 C10.448,11 10,10.553 10,10 C10,9.447 10.448,9 11,9 L13,9 L13,7 C13,6.447 13.448,6 14,6 C14.552,6 15,6.447 15,7 L15,9 L17,9 Z" fill="#C1CBD4" fill-rule="evenodd" />
</svg>
